src/assets/svg/icons/fa/nuevos/classic/light/hands-holding-heart classic light.svg

<svg xmlns="http://www.w3.org/2000/svg" viewBox="0 0 640 512"><path d="M299.9 21.26L320 41.37L340.1 21.26C353.7 7.646 372.2 0 391.4 0C431.5 0 464 32.49 464 72.57V77.4C464 98.79 455.1 119.2 439.5 133.9L341.9 225.4C329.6 236.1 310.4 236.1 298.1 225.4L200.5 133.9C184.9 119.2 176 98.79 176 77.4V72.57C176 32.49 208.5 .0003 248.6 .0003C267.8 .0003 286.3 7.646 299.9 21.26H299.9zM208 77.4C208 89.95 213.2 101.9 222.3 110.5L320 202.1L417.7 110.5C426.8 101.9 432 89.95 432 77.4V72.57C432 50.16 413.8 32 391.4 32C380.7 32 370.4 36.27 362.7 43.88L331.3 75.31C325.1 81.56 314.9 81.56 308.7 75.31L277.3 43.88C269.6 36.27 259.3 32 248.6 32C226.2 32 208 50.16 208 72.57V77.4zM64 64C99.35 64 128 92.65 128 128V252.3C128 256.9 128.4 261.4 129.3 265.8C131.4 262.6 133.9 259.5 136.7 256.7C158.4 234.1 193.6 234.1 215.3 256.7L306.6 347.1C311.7 353.1 316.2 358.6 320 364.6C323.8 358.6 328.3 353.1 333.4 347.1L424.7 256.7C446.4 234.1 481.6 234.1 503.3 256.7C506.1 259.5 508.6 262.6 510.7 265.8C511.6 261.4 512 256.9 512 252.3V128C512 92.65 540.7 64 576 64C611.3 64 640 92.65 640 128V344.2C640 373.9 628.2 402.4 607.2 423.4L523.3 507.3C517.1 513.6 506.9 513.6 500.7 507.3C494.4 501.1 494.4 490.9 500.7 484.7L584.6 400.8C599.6 385.8 608 365.5 608 344.2V128C608 110.3 593.7 96 576 96C558.3 96 544 110.3 544 128V252.3C544 279.4 533.2 305.4 514.1 324.5L443.3 395.3C437.1 401.6 426.9 401.6 420.7 395.3C414.4 389.1 414.4 378.9 420.7 372.7L480.7 312.7C489.9 303.5 489.9 288.5 480.7 279.3C471.5 270.1 456.5 270.1 447.3 279.3L356 370.6C343.2 383.4 336 400.8 336 418.9V496C336 504.8 328.8 512 320 512C311.2 512 304 504.8 304 496V418.9C304 400.8 296.8 383.4 283.1 370.6L192.7 279.3C183.5 270.1 168.5 270.1 159.3 279.3C150.1 288.5 150.1 303.5 159.3 312.7L219.3 372.7C225.6 378.9 225.6 389.1 219.3 395.3C213.1 401.6 202.9 401.6 196.7 395.3L125.9 324.5C106.8 305.4 96 279.4 96 252.3V128C96 110.3 81.67 96 64 96C46.33 96 32 110.3 32 128V344.2C32 365.5 40.43 385.8 55.43 400.8L139.3 484.7C145.6 490.9 145.6 501.1 139.3 507.3C133.1 513.6 122.9 513.6 116.7 507.3L32.8 423.4C11.8 402.4 0 373.9 0 344.2V128C0 92.65 28.65 64 64 64H64z"/></svg>

<svg xmlns="http://www.w3.org/2000/svg" viewBox="0 0 640 512"><!--! Font Awesome Pro 6.4.0 by @fontawesome - https://fontawesome.com License - https://fontawesome.com/license (Commercial License) Copyright 2023 Fonticons, Inc. --><path d="M216 76.6c0 10.8 4.3 21.1 11.9 28.7L320 197.4l92.1-92.1c7.6-7.6 11.9-17.9 11.9-28.7C424 54.2 405.8 36 383.4 36c-10.8 0-21.1 4.3-28.7 11.9L331.3 71.3c-6.2 6.2-16.4 6.2-22.6 0L285.3 47.9C277.6 40.3 267.3 36 256.6 36C234.2 36 216 54.2 216 76.6zM256.6 4c19.2 0 37.7 7.6 51.3 21.3L320 37.4l12.1-12.1C345.7 11.6 364.2 4 383.4 4C423.5 4 456 36.5 456 76.6c0 19.2-7.6 37.7-21.3 51.3L331.3 231.3c-6.2 6.2-16.4 6.2-22.6 0L205.3 127.9C191.6 114.3 184 95.8 184 76.6C184 36.5 216.5 4 256.6 4zM64 64c35.3 0 64 28.7 64 64V252.3c0 4.6 .4 9.1 1.3 13.5c2.1-3.2 4.6-6.3 7.4-9.1c21.7-21.7 56.9-21.7 78.6 0L306.6 348c5.1 5.1 9.6 10.6 13.4 16.6c3.8-5.9 8.3-11.5 13.4-16.6l91.3-91.3c21.7-21.7 56.9-21.7 78.6 0c2.8 2.8 5.3 5.9 7.4 9.1c.9-4.4 1.3-8.9 1.3-13.5V128c0-35.3 28.7-64 64-64s64 28.7 64 64V344.2c0 29.7-11.8 58.2-32.8 79.2l-83.9 83.9c-6.2 6.2-16.4 6.2-22.6 0s-6.2-16.4 0-22.6l83.9-83.9c15-15 23.4-35.4 23.4-56.6V128c0-17.7-14.3-32-32-32s-32 14.3-32 32V252.3c0 27.1-10.8 53.1-29.9 72.2l-10.8 10.8-44 44-16 16c-6.2 6.2-16.4 6.2-22.6 0s-6.2-16.4 0-22.6l16-16 0 0 44-44 0 0c9.2-9.2 9.2-24.2 0-33.4s-24.2-9.2-33.4 0L356 370.6c-12.8 12.8-20 30.2-20 48.3V496c0 8.8-7.2 16-16 16s-16-7.2-16-16V418.9c0-18.1-7.2-35.5-20-48.3l-91.3-91.3c-9.2-9.2-24.2-9.2-33.4 0s-9.2 24.2 0 33.4l44 44 16 16c6.2 6.2 6.2 16.4 0 22.6s-16.4 6.2-22.6 0l-16-16 0 0-44-44 0 0-10.7-10.8C106.8 305.4 96 279.4 96 252.3V128c0-17.7-14.3-32-32-32s-32 14.3-32 32V344.2c0 21.2 8.4 41.6 23.4 56.6l83.9 83.9c6.2 6.2 6.2 16.4 0 22.6s-16.4 6.2-22.6 0L32.8 423.4C11.8 402.4 0 373.9 0 344.2V128C0 92.7 28.7 64 64 64z"/></svg>
